src/main/resources/icons/PythonUltimateIcons/icons/com/jetbrains/django/structureViewDjangoTagIcon.svg

<svg xmlns="http://www.w3.org/2000/svg" width="16" height="16" viewBox="0 0 16 16">
  <g fill="none" fill-opacity=".9" fill-rule="evenodd">
    <path fill="#7F8B91" d="M5.84,8 C4.83,8 4.15,7.21 4.15,6.23 L4.15,6.21 C4.15,5.22 4.84,4.42 5.86,4.42 C6.87,4.42 7.55,5.21 7.55,6.19 L7.55,6.21 C7.55,7.19 6.86,8 5.84,8 Z M5.84,5.33 C5.42,5.33 5.2,5.73 5.2,6.19 L5.2,6.21 C5.2,6.68 5.46,7.09 5.86,7.09 C6.28,7.09 6.5,6.68 6.5,6.23 L6.5,6.21 C6.5,5.74 6.24,5.33 5.84,5.33 Z M7.65,7.73 L9.96,4.5 L11.15,4.5 L8.35,8.27 L6.04,11.5 L4.85,11.5 L7.65,7.73 Z M10.14,11.58 C9.13,11.58 8.45,10.79 8.45,9.81 L8.45,9.79 C8.45,8.8 9.14,8 10.16,8 C11.17,8 11.85,8.79 11.85,9.77 L11.85,9.79 C11.85,10.77 11.16,11.58 10.14,11.58 Z M10.16,10.67 C10.58,10.67 10.8,10.26 10.8,9.81 L10.8,9.79 C10.8,9.32 10.54,8.91 10.14,8.91 C9.72,8.91 9.5,9.31 9.5,9.77 L9.5,9.79 C9.5,10.26 9.76,10.67 10.16,10.67 Z"/>
    <path fill="#7F8B91" d="M4.784,12.9215 C2.691,12.542 2.1735,11.806 2.1735,10.633 C2.1735,10.4605 2.1965,10.0005 2.1965,9.805 C2.1965,8.908 1.8515,8.5285 0.897,8.5285 L0.598,8.5285 L0.598,7.4705 L0.897,7.4705 C1.8515,7.4705 2.1965,7.091 2.1965,6.194 C2.1965,5.9985 2.1735,5.5385 2.1735,5.366 C2.1735,4.193 2.691,3.457 4.784,3.0775 L5.0255,3.9975 C3.6455,4.377 3.4615,4.7335 3.4615,5.573 C3.4615,5.803 3.4845,6.1825 3.4845,6.424 C3.4845,7.321 3.0475,7.758 2.2885,7.9995 C3.059,8.2525 3.4845,8.678 3.4845,9.575 C3.4845,9.8165 3.4615,10.196 3.4615,10.426 C3.4615,11.2655 3.6455,11.622 5.0255,12.0015 L4.784,12.9215 Z"/>
    <path fill="#7F8B91" d="M15.156,12.9215 C13.063,12.542 12.5455,11.806 12.5455,10.633 C12.5455,10.4605 12.5685,10.0005 12.5685,9.805 C12.5685,8.908 12.2235,8.5285 11.269,8.5285 L10.97,8.5285 L10.97,7.4705 L11.269,7.4705 C12.2235,7.4705 12.5685,7.091 12.5685,6.194 C12.5685,5.9985 12.5455,5.5385 12.5455,5.366 C12.5455,4.193 13.063,3.457 15.156,3.0775 L15.3975,3.9975 C14.0175,4.377 13.8335,4.7335 13.8335,5.573 C13.8335,5.803 13.8565,6.1825 13.8565,6.424 C13.8565,7.321 13.4195,7.758 12.6605,7.9995 C13.431,8.2525 13.8565,8.678 13.8565,9.575 C13.8565,9.8165 13.8335,10.196 13.8335,10.426 C13.8335,11.2655 14.0175,11.622 15.3975,12.0015 L15.156,12.9215 Z" transform="matrix(-1 0 0 1 26.367 0)"/>
  </g>
</svg>

<svg xmlns="http://www.w3.org/2000/svg" width="16" height="16" viewBox="0 0 16 16"><rect id="frame" width="16" height="16" fill="none"/><g fill="#7F8B91" fill-opacity=".9" fill-rule="evenodd"><path d="M5.84 8c-1.01 0-1.69-.79-1.69-1.77v-.02c0-.99.69-1.79 1.71-1.79 1.01 0 1.69.79 1.69 1.77v.02C7.55 7.19 6.86 8 5.84 8zm0-2.67c-.42 0-.64.4-.64.86v.02c0 .47.26.88.66.88.42 0 .64-.41.64-.86v-.02c0-.47-.26-.88-.66-.88zm1.81 2.4L9.96 4.5h1.19l-2.8 3.77-2.31 3.23H4.85l2.8-3.77zm2.49 3.85c-1.01 0-1.69-.79-1.69-1.77v-.02c0-.99.69-1.79 1.71-1.79 1.01 0 1.69.79 1.69 1.77v.02c0 .98-.69 1.79-1.71 1.79zm.02-.91c.42 0 .64-.41.64-.86v-.02c0-.47-.26-.88-.66-.88-.42 0-.64.4-.64.86v.02c0 .47.26.88.66.88z"/><path d="M4.784 12.921c-2.093-.379-2.61-1.115-2.61-2.288 0-.172.022-.632.022-.828 0-.897-.345-1.277-1.299-1.277H.598V7.47h.299c.954 0 1.3-.379 1.3-1.276 0-.196-.023-.655-.023-.828 0-1.173.517-1.909 2.61-2.288l.242.92c-1.38.379-1.564.736-1.564 1.575 0 .23.022.61.022.851 0 .897-.437 1.334-1.196 1.575.771.253 1.197.679 1.197 1.576 0 .242-.023.621-.023.851 0 .84.183 1.196 1.563 1.575l-.241.92z"/><path d="M11.211 12.921c2.093-.379 2.61-1.115 2.61-2.288 0-.172-.022-.632-.022-.828 0-.897.345-1.277 1.299-1.277h.299V7.47h-.299c-.954 0-1.3-.379-1.3-1.276 0-.196.024-.655.024-.828 0-1.173-.518-1.909-2.611-2.288l-.242.92c1.38.379 1.565.736 1.565 1.575 0 .23-.024.61-.024.851 0 .897.438 1.334 1.197 1.575-.771.253-1.197.679-1.197 1.576 0 .242.024.621.024.851 0 .84-.184 1.196-1.565 1.575l.242.92z"/></g></svg>
